src/static/img/logo.svg

<svg role="img" xmlns="http://www.w3.org/2000/svg" xmlns:xlink="http://www.w3.org/1999/xlink" width="187.5" viewBox="0 0 187.5 30" height="30" version="1.0"><defs><g id="a"><path d="M 6.015625 -6.6875 L 10.75 -6.6875 L 10.75 -0.515625 C 9.976562 -0.265625 9.253906 -0.09375 8.578125 0 C 7.898438 0.101562 7.210938 0.15625 6.515625 0.15625 C 4.710938 0.15625 3.335938 -0.367188 2.390625 -1.421875 C 1.441406 -2.472656 0.96875 -3.988281 0.96875 -5.96875 C 0.96875 -7.894531 1.515625 -9.394531 2.609375 -10.46875 C 3.710938 -11.539062 5.238281 -12.078125 7.1875 -12.078125 C 8.414062 -12.078125 9.597656 -11.832031 10.734375 -11.34375 L 9.890625 -9.328125 C 9.023438 -9.765625 8.117188 -9.984375 7.171875 -9.984375 C 6.085938 -9.984375 5.210938 -9.613281 4.546875 -8.875 C 3.890625 -8.144531 3.5625 -7.160156 3.5625 -5.921875 C 3.5625 -4.628906 3.828125 -3.640625 4.359375 -2.953125 C 4.890625 -2.273438 5.660156 -1.9375 6.671875 -1.9375 C 7.203125 -1.9375 7.738281 -1.992188 8.28125 -2.109375 L 8.28125 -4.59375 L 6.015625 -4.59375 Z M 6.015625 -6.6875"/></g><g id="b"><path d="M 6.390625 -9.28125 C 6.722656 -9.28125 7.003906 -9.253906 7.234375 -9.203125 L 7.046875 -6.875 C 6.835938 -6.925781 6.59375 -6.953125 6.3125 -6.953125 C 5.507812 -6.953125 4.882812 -6.75 4.4375 -6.34375 C 4 -5.9375 3.78125 -5.367188 3.78125 -4.640625 L 3.78125 0 L 1.296875 0 L 1.296875 -9.109375 L 3.1875 -9.109375 L 3.546875 -7.578125 L 3.671875 -7.578125 C 3.953125 -8.085938 4.332031 -8.5 4.8125 -8.8125 C 5.300781 -9.125 5.828125 -9.28125 6.390625 -9.28125 Z M 6.390625 -9.28125"/></g><g id="c"><path d="M 5.078125 -7.515625 C 4.546875 -7.515625 4.128906 -7.347656 3.828125 -7.015625 C 3.535156 -6.679688 3.367188 -6.207031 3.328125 -5.59375 L 6.8125 -5.59375 C 6.800781 -6.207031 6.640625 -6.679688 6.328125 -7.015625 C 6.015625 -7.347656 5.597656 -7.515625 5.078125 -7.515625 Z M 5.421875 0.15625 C 3.960938 0.15625 2.816406 -0.242188 1.984375 -1.046875 C 1.160156 -1.859375 0.75 -3.003906 0.75 -4.484375 C 0.75 -6.015625 1.128906 -7.195312 1.890625 -8.03125 C 2.660156 -8.863281 3.71875 -9.28125 5.0625 -9.28125 C 6.34375 -9.28125 7.34375 -8.910156 8.0625 -8.171875 C 8.78125 -7.441406 9.140625 -6.429688 9.140625 -5.140625 L 9.140625 -3.9375 L 3.265625 -3.9375 C 3.296875 -3.226562 3.503906 -2.675781 3.890625 -2.28125 C 4.285156 -1.882812 4.835938 -1.6875 5.546875 -1.6875 C 6.085938 -1.6875 6.601562 -1.742188 7.09375 -1.859375 C 7.582031 -1.972656 8.09375 -2.15625 8.625 -2.40625 L 8.625 -0.484375 C 8.195312 -0.265625 7.734375 -0.101562 7.234375 0 C 6.742188 0.101562 6.140625 0.15625 5.421875 0.15625 Z M 5.421875 0.15625"/></g><g id="d"><path d="M 0 -9.109375 L 2.71875 -9.109375 L 4.4375 -3.984375 C 4.582031 -3.535156 4.6875 -3.007812 4.75 -2.40625 L 4.796875 -2.40625 C 4.847656 -2.96875 4.960938 -3.492188 5.140625 -3.984375 L 6.828125 -9.109375 L 9.5 -9.109375 L 5.640625 1.171875 C 5.285156 2.117188 4.78125 2.828125 4.125 3.296875 C 3.46875 3.773438 2.703125 4.015625 1.828125 4.015625 C 1.398438 4.015625 0.984375 3.96875 0.578125 3.875 L 0.578125 1.90625 C 0.867188 1.96875 1.191406 2 1.546875 2 C 1.984375 2 2.363281 1.863281 2.6875 1.59375 C 3.019531 1.332031 3.28125 0.929688 3.46875 0.390625 L 3.625 -0.0625 Z M 0 -9.109375"/></g><g id="e"><path d="M 7.65625 -2.703125 C 7.65625 -1.765625 7.332031 -1.050781 6.6875 -0.5625 C 6.039062 -0.0820312 5.066406 0.15625 3.765625 0.15625 C 3.109375 0.15625 2.546875 0.109375 2.078125 0.015625 C 1.609375 -0.0664062 1.171875 -0.191406 0.765625 -0.359375 L 0.765625 -2.421875 C 1.222656 -2.203125 1.738281 -2.019531 2.3125 -1.875 C 2.894531 -1.726562 3.410156 -1.65625 3.859375 -1.65625 C 4.753906 -1.65625 5.203125 -1.914062 5.203125 -2.4375 C 5.203125 -2.632812 5.140625 -2.789062 5.015625 -2.90625 C 4.898438 -3.03125 4.695312 -3.171875 4.40625 -3.328125 C 4.113281 -3.484375 3.722656 -3.664062 3.234375 -3.875 C 2.535156 -4.164062 2.019531 -4.4375 1.6875 -4.6875 C 1.363281 -4.9375 1.125 -5.222656 0.96875 -5.546875 C 0.820312 -5.867188 0.75 -6.265625 0.75 -6.734375 C 0.75 -7.546875 1.0625 -8.171875 1.6875 -8.609375 C 2.3125 -9.054688 3.203125 -9.28125 4.359375 -9.28125 C 5.453125 -9.28125 6.519531 -9.039062 7.5625 -8.5625 L 6.8125 -6.765625 C 6.351562 -6.960938 5.925781 -7.125 5.53125 -7.25 C 5.132812 -7.375 4.726562 -7.4375 4.3125 -7.4375 C 3.582031 -7.4375 3.21875 -7.238281 3.21875 -6.84375 C 3.21875 -6.625 3.332031 -6.429688 3.5625 -6.265625 C 3.800781 -6.097656 4.320312 -5.859375 5.125 -5.546875 C 5.832031 -5.253906 6.351562 -4.984375 6.6875 -4.734375 C 7.019531 -4.484375 7.265625 -4.191406 7.421875 -3.859375 C 7.578125 -3.535156 7.65625 -3.148438 7.65625 -2.703125 Z M 7.65625 -2.703125"/></g><g id="f"><path d="M 9.71875 0 L 7.234375 0 L 7.234375 -5.328125 C 7.234375 -6.640625 6.742188 -7.296875 5.765625 -7.296875 C 5.066406 -7.296875 4.5625 -7.054688 4.25 -6.578125 C 3.9375 -6.109375 3.78125 -5.34375 3.78125 -4.28125 L 3.78125 0 L 1.296875 0 L 1.296875 -12.671875 L 3.78125 -12.671875 L 3.78125 -10.09375 C 3.78125 -9.894531 3.765625 -9.421875 3.734375 -8.671875 L 3.671875 -7.9375 L 3.8125 -7.9375 C 4.363281 -8.832031 5.238281 -9.28125 6.4375 -9.28125 C 7.507812 -9.28125 8.320312 -8.988281 8.875 -8.40625 C 9.4375 -7.832031 9.71875 -7.007812 9.71875 -5.9375 Z M 9.71875 0"/></g><g id="g"><path d="M 3.28125 -4.578125 C 3.28125 -3.671875 3.425781 -2.984375 3.71875 -2.515625 C 4.019531 -2.054688 4.503906 -1.828125 5.171875 -1.828125 C 5.835938 -1.828125 6.316406 -2.054688 6.609375 -2.515625 C 6.898438 -2.972656 7.046875 -3.660156 7.046875 -4.578125 C 7.046875 -5.472656 6.894531 -6.144531 6.59375 -6.59375 C 6.300781 -7.050781 5.820312 -7.28125 5.15625 -7.28125 C 4.488281 -7.28125 4.007812 -7.054688 3.71875 -6.609375 C 3.425781 -6.160156 3.28125 -5.484375 3.28125 -4.578125 Z M 9.578125 -4.578125 C 9.578125 -3.085938 9.1875 -1.925781 8.40625 -1.09375 C 7.625 -0.257812 6.535156 0.15625 5.140625 0.15625 C 4.265625 0.15625 3.492188 -0.03125 2.828125 -0.40625 C 2.160156 -0.789062 1.644531 -1.34375 1.28125 -2.0625 C 0.925781 -2.78125 0.75 -3.617188 0.75 -4.578125 C 0.75 -6.054688 1.132812 -7.207031 1.90625 -8.03125 C 2.6875 -8.863281 3.78125 -9.28125 5.1875 -9.28125 C 6.0625 -9.28125 6.832031 -9.085938 7.5 -8.703125 C 8.164062 -8.328125 8.675781 -7.78125 9.03125 -7.0625 C 9.394531 -6.351562 9.578125 -5.523438 9.578125 -4.578125 Z M 9.578125 -4.578125"/></g><g id="i"><path d="M 8.796875 0 L 7.921875 -2.828125 L 3.578125 -2.828125 L 2.71875 0 L 0 0 L 4.203125 -11.96875 L 7.296875 -11.96875 L 11.515625 0 Z M 7.328125 -4.953125 C 6.523438 -7.523438 6.070312 -8.976562 5.96875 -9.3125 C 5.875 -9.644531 5.804688 -9.910156 5.765625 -10.109375 C 5.578125 -9.410156 5.0625 -7.691406 4.21875 -4.953125 Z M 7.328125 -4.953125"/></g><g id="j"><path d="M 5 0.15625 C 2.164062 0.15625 0.75 -1.394531 0.75 -4.5 C 0.75 -6.050781 1.132812 -7.234375 1.90625 -8.046875 C 2.675781 -8.867188 3.78125 -9.28125 5.21875 -9.28125 C 6.269531 -9.28125 7.21875 -9.070312 8.0625 -8.65625 L 7.328125 -6.734375 C 6.929688 -6.890625 6.566406 -7.019531 6.234375 -7.125 C 5.898438 -7.226562 5.5625 -7.28125 5.21875 -7.28125 C 3.925781 -7.28125 3.28125 -6.359375 3.28125 -4.515625 C 3.28125 -2.734375 3.925781 -1.84375 5.21875 -1.84375 C 5.695312 -1.84375 6.140625 -1.90625 6.546875 -2.03125 C 6.953125 -2.164062 7.359375 -2.367188 7.765625 -2.640625 L 7.765625 -0.515625 C 7.367188 -0.253906 6.960938 -0.078125 6.546875 0.015625 C 6.140625 0.109375 5.625 0.15625 5 0.15625 Z M 5 0.15625"/></g><g id="k"><path d="M 1.203125 -11.46875 C 1.203125 -12.269531 1.648438 -12.671875 2.546875 -12.671875 C 3.453125 -12.671875 3.90625 -12.269531 3.90625 -11.46875 C 3.90625 -11.082031 3.789062 -10.78125 3.5625 -10.5625 C 3.34375 -10.351562 3.003906 -10.25 2.546875 -10.25 C 1.648438 -10.25 1.203125 -10.65625 1.203125 -11.46875 Z M 3.78125 0 L 1.296875 0 L 1.296875 -9.109375 L 3.78125 -9.109375 Z M 3.78125 0"/></g><g id="l"><path d="M 7.09375 0 L 6.609375 -1.234375 L 6.546875 -1.234375 C 6.128906 -0.710938 5.695312 -0.347656 5.25 -0.140625 C 4.8125 0.0546875 4.234375 0.15625 3.515625 0.15625 C 2.640625 0.15625 1.953125 -0.09375 1.453125 -0.59375 C 0.953125 -1.09375 0.703125 -1.800781 0.703125 -2.71875 C 0.703125 -3.6875 1.039062 -4.398438 1.71875 -4.859375 C 2.394531 -5.316406 3.414062 -5.570312 4.78125 -5.625 L 6.359375 -5.671875 L 6.359375 -6.078125 C 6.359375 -6.992188 5.882812 -7.453125 4.9375 -7.453125 C 4.207031 -7.453125 3.351562 -7.234375 2.375 -6.796875 L 1.546875 -8.46875 C 2.597656 -9.019531 3.757812 -9.296875 5.03125 -9.296875 C 6.257812 -9.296875 7.195312 -9.03125 7.84375 -8.5 C 8.5 -7.96875 8.828125 -7.160156 8.828125 -6.078125 L 8.828125 0 Z M 6.359375 -4.21875 L 5.390625 -4.1875 C 4.671875 -4.164062 4.132812 -4.035156 3.78125 -3.796875 C 3.425781 -3.554688 3.25 -3.191406 3.25 -2.703125 C 3.25 -2.003906 3.648438 -1.65625 4.453125 -1.65625 C 5.035156 -1.65625 5.5 -1.816406 5.84375 -2.140625 C 6.1875 -2.472656 6.359375 -2.914062 6.359375 -3.46875 Z M 6.359375 -4.21875"/></g><g id="m"><path d="M 5.140625 -1.8125 C 5.578125 -1.8125 6.097656 -1.910156 6.703125 -2.109375 L 6.703125 -0.25 C 6.085938 0.0195312 5.328125 0.15625 4.421875 0.15625 C 3.429688 0.15625 2.707031 -0.09375 2.25 -0.59375 C 1.800781 -1.09375 1.578125 -1.847656 1.578125 -2.859375 L 1.578125 -7.25 L 0.390625 -7.25 L 0.390625 -8.296875 L 1.75 -9.125 L 2.46875 -11.046875 L 4.0625 -11.046875 L 4.0625 -9.109375 L 6.609375 -9.109375 L 6.609375 -7.25 L 4.0625 -7.25 L 4.0625 -2.859375 C 4.0625 -2.503906 4.160156 -2.238281 4.359375 -2.0625 C 4.554688 -1.894531 4.816406 -1.8125 5.140625 -1.8125 Z M 5.140625 -1.8125"/></g></defs><g fill="#FFF"><use x="4.003" y="20.684" xmlns:xlink="http://www.w3.org/1999/xlink" xlink:href="#a" xlink:type="simple" xlink:actuate="onLoad" xlink:show="embed"/></g><g fill="#FFF"><use x="16.166" y="20.684" xmlns:xlink="http://www.w3.org/1999/xlink" xlink:href="#b" xlink:type="simple" xlink:actuate="onLoad" xlink:show="embed"/></g><g fill="#FFF"><use x="23.824" y="20.684" xmlns:xlink="http://www.w3.org/1999/xlink" xlink:href="#c" xlink:type="simple" xlink:actuate="onLoad" xlink:show="embed"/></g><g fill="#FFF"><use x="33.763" y="20.684" xmlns:xlink="http://www.w3.org/1999/xlink" xlink:href="#d" xlink:type="simple" xlink:actuate="onLoad" xlink:show="embed"/></g><g fill="#FFF"><use x="43.336" y="20.684" xmlns:xlink="http://www.w3.org/1999/xlink" xlink:href="#e" xlink:type="simple" xlink:actuate="onLoad" xlink:show="embed"/></g><g fill="#FFF"><use x="51.711" y="20.684" xmlns:xlink="http://www.w3.org/1999/xlink" xlink:href="#f" xlink:type="simple" xlink:actuate="onLoad" xlink:show="embed"/></g><g fill="#FFF"><use x="62.758" y="20.684" xmlns:xlink="http://www.w3.org/1999/xlink" xlink:href="#g" xlink:type="simple" xlink:actuate="onLoad" xlink:show="embed"/></g><g fill="#FFF"><use x="73.169" y="20.684" xmlns:xlink="http://www.w3.org/1999/xlink" xlink:href="#b" xlink:type="simple" xlink:actuate="onLoad" xlink:show="embed"/></g><g fill="#FFF"><use x="80.828" y="20.684" xmlns:xlink="http://www.w3.org/1999/xlink" xlink:href="#c" xlink:type="simple" xlink:actuate="onLoad" xlink:show="embed"/></g><g fill="#FFF"><use x="90.767" y="20.684" xmlns:xlink="http://www.w3.org/1999/xlink" xlink:href="#h" xlink:type="simple" xlink:actuate="onLoad" xlink:show="embed"/></g><g fill="#FFF"><use x="95.183" y="20.684" xmlns:xlink="http://www.w3.org/1999/xlink" xlink:href="#i" xlink:type="simple" xlink:actuate="onLoad" xlink:show="embed"/></g><g fill="#FFF"><use x="106.776" y="20.684" xmlns:xlink="http://www.w3.org/1999/xlink" xlink:href="#e" xlink:type="simple" xlink:actuate="onLoad" xlink:show="embed"/></g><g fill="#FFF"><use x="115.151" y="20.684" xmlns:xlink="http://www.w3.org/1999/xlink" xlink:href="#e" xlink:type="simple" xlink:actuate="onLoad" xlink:show="embed"/></g><g fill="#FFF"><use x="123.526" y="20.684" xmlns:xlink="http://www.w3.org/1999/xlink" xlink:href="#g" xlink:type="simple" xlink:actuate="onLoad" xlink:show="embed"/></g><g fill="#FFF"><use x="133.938" y="20.684" xmlns:xlink="http://www.w3.org/1999/xlink" xlink:href="#j" xlink:type="simple" xlink:actuate="onLoad" xlink:show="embed"/></g><g fill="#FFF"><use x="142.598" y="20.684" xmlns:xlink="http://www.w3.org/1999/xlink" xlink:href="#k" xlink:type="simple" xlink:actuate="onLoad" xlink:show="embed"/></g><g fill="#FFF"><use x="147.772" y="20.684" xmlns:xlink="http://www.w3.org/1999/xlink" xlink:href="#l" xlink:type="simple" xlink:actuate="onLoad" xlink:show="embed"/></g><g fill="#FFF"><use x="157.931" y="20.684" xmlns:xlink="http://www.w3.org/1999/xlink" xlink:href="#m" xlink:type="simple" xlink:actuate="onLoad" xlink:show="embed"/></g><g fill="#FFF"><use x="165.256" y="20.684" xmlns:xlink="http://www.w3.org/1999/xlink" xlink:href="#c" xlink:type="simple" xlink:actuate="onLoad" xlink:show="embed"/></g><g fill="#FFF"><use x="175.195" y="20.684" xmlns:xlink="http://www.w3.org/1999/xlink" xlink:href="#e" xlink:type="simple" xlink:actuate="onLoad" xlink:show="embed"/></g></svg>

<svg xmlns="http://www.w3.org/2000/svg" xmlns:xlink="http://www.w3.org/1999/xlink" width="187.5" height="30" version="1.0"><defs><path d="M6.016-6.688h4.734v6.172c-.773.25-1.496.422-2.172.516-.68.102-1.367.156-2.062.156-1.805 0-3.18-.523-4.125-1.578C1.44-2.472.969-3.988.969-5.969c0-1.926.547-3.426 1.64-4.5 1.102-1.07 2.63-1.61 4.579-1.61 1.226 0 2.41.247 3.546.735l-.843 2.016a5.96 5.96 0 0 0-2.72-.656c-1.085 0-1.96.37-2.624 1.109-.656.73-.984 1.715-.984 2.953 0 1.293.265 2.281.796 2.969.532.68 1.301 1.015 2.313 1.015.531 0 1.066-.054 1.61-.171v-2.485H6.015Zm0 0" id="a"/><path d="M6.39-9.281c.333 0 .614.027.844.078l-.187 2.328a3.136 3.136 0 0 0-.734-.078c-.805 0-1.43.203-1.875.61-.438.405-.657.976-.657 1.702V0H1.297v-9.11h1.89l.36 1.532h.125c.281-.508.66-.922 1.14-1.234a2.877 2.877 0 0 1 1.579-.47Zm0 0" id="b"/><path d="M5.078-7.516c-.531 0-.95.168-1.25.5-.293.336-.46.809-.5 1.422h3.485C6.8-6.207 6.64-6.68 6.327-7.016c-.312-.332-.73-.5-1.25-.5ZM5.422.156c-1.461 0-2.606-.398-3.438-1.203C1.16-1.859.75-3.004.75-4.484c0-1.532.379-2.711 1.14-3.547.77-.832 1.829-1.25 3.173-1.25 1.28 0 2.28.37 3 1.11.718.73 1.078 1.741 1.078 3.03v1.204H3.266c.03.71.238 1.261.625 1.656.394.398.945.594 1.656.594.539 0 1.055-.055 1.547-.172a7.72 7.72 0 0 0 1.531-.547v1.922c-.43.218-.89.382-1.39.484-.493.102-1.094.156-1.813.156Zm0 0" id="c"/><path d="M0-9.11h2.719l1.719 5.126c.144.449.25.976.312 1.578h.047c.05-.563.164-1.086.344-1.578L6.828-9.11H9.5L5.64 1.17c-.355.946-.859 1.657-1.515 2.126-.656.476-1.422.719-2.297.719-.43 0-.844-.047-1.25-.141V1.906c.29.063.613.094.969.094.437 0 .816-.137 1.14-.406.333-.262.594-.664.782-1.203l.156-.454Zm0 0" id="d"/><path d="M7.656-2.703c0 .937-.324 1.652-.968 2.14-.649.481-1.622.72-2.922.72-.657 0-1.22-.048-1.688-.141A6.24 6.24 0 0 1 .766-.36v-2.063c.457.219.972.402 1.546.547a6.328 6.328 0 0 0 1.547.219c.895 0 1.344-.258 1.344-.782a.612.612 0 0 0-.187-.468c-.118-.125-.32-.266-.61-.422a16.653 16.653 0 0 0-1.172-.547c-.699-.29-1.214-.563-1.546-.813a2.401 2.401 0 0 1-.72-.859C.82-5.867.75-6.266.75-6.734c0-.813.313-1.438.938-1.875.625-.446 1.515-.672 2.671-.672 1.094 0 2.16.242 3.204.719l-.75 1.796c-.461-.195-.887-.359-1.282-.484a4.049 4.049 0 0 0-1.218-.188c-.731 0-1.094.2-1.094.594 0 .219.113.414.344.578.238.168.757.407 1.562.72.707.292 1.227.562 1.563.812.332.25.578.543.734.875.156.324.234.71.234 1.156Zm0 0" id="e"/><path d="M9.719 0H7.234v-5.328c0-1.313-.492-1.969-1.468-1.969-.7 0-1.204.242-1.516.719-.313.469-.469 1.234-.469 2.297V0H1.297v-12.672H3.78v2.578c0 .2-.015.672-.047 1.422l-.062.735h.14c.551-.895 1.426-1.344 2.626-1.344 1.07 0 1.882.293 2.437.875.563.574.844 1.398.844 2.469Zm0 0" id="f"/><path d="M3.281-4.578c0 .906.145 1.594.438 2.062.3.461.785.688 1.453.688.664 0 1.144-.227 1.437-.688.29-.457.438-1.144.438-2.062 0-.895-.152-1.567-.453-2.016C6.3-7.05 5.82-7.28 5.156-7.28c-.668 0-1.148.226-1.437.672-.293.449-.438 1.125-.438 2.03Zm6.297 0c0 1.492-.39 2.652-1.172 3.484-.781.836-1.87 1.25-3.265 1.25-.875 0-1.649-.187-2.313-.562a3.872 3.872 0 0 1-1.547-1.656C.926-2.782.75-3.617.75-4.579c0-1.477.383-2.629 1.156-3.453.782-.832 1.875-1.25 3.282-1.25.875 0 1.644.195 2.312.578a3.734 3.734 0 0 1 1.531 1.64c.364.711.547 1.54.547 2.485Zm0 0" id="g"/><path d="m8.797 0-.875-2.828H3.578L2.718 0H0l4.203-11.969h3.094L11.516 0ZM7.328-4.953a971.61 971.61 0 0 1-1.36-4.36 10.983 10.983 0 0 1-.202-.796c-.188.699-.704 2.418-1.547 5.156Zm0 0" id="h"/><path d="M5 .156C2.164.156.75-1.394.75-4.5c0-1.55.383-2.734 1.156-3.547.77-.82 1.875-1.234 3.313-1.234 1.05 0 2 .21 2.843.625l-.734 1.922a17.599 17.599 0 0 0-1.094-.391 3.484 3.484 0 0 0-1.015-.156c-1.293 0-1.938.922-1.938 2.765 0 1.782.645 2.672 1.938 2.672a4.51 4.51 0 0 0 1.328-.187 4.938 4.938 0 0 0 1.219-.61v2.125a3.704 3.704 0 0 1-1.22.532c-.405.093-.921.14-1.546.14Zm0 0" id="i"/><path d="M1.203-11.469c0-.8.445-1.203 1.344-1.203.906 0 1.36.402 1.36 1.203 0 .387-.118.688-.345.906-.218.211-.558.313-1.015.313-.899 0-1.344-.406-1.344-1.219ZM3.781 0H1.297v-9.11H3.78Zm0 0" id="j"/><path d="m7.094 0-.485-1.234h-.062c-.418.523-.852.886-1.297 1.093-.438.196-1.016.297-1.734.297-.875 0-1.563-.25-2.063-.75-.5-.5-.75-1.207-.75-2.125 0-.969.336-1.68 1.016-2.14.676-.457 1.695-.711 3.062-.766l1.578-.047v-.406c0-.914-.476-1.375-1.421-1.375-.731 0-1.586.219-2.563.656l-.828-1.672c1.05-.55 2.21-.828 3.484-.828 1.227 0 2.164.266 2.813.797.656.531.984 1.34.984 2.422V0Zm-.735-4.219-.968.032c-.72.023-1.258.152-1.61.39-.355.242-.531.606-.531 1.094 0 .7.398 1.047 1.203 1.047.582 0 1.047-.16 1.39-.485.345-.332.516-.773.516-1.328Zm0 0" id="k"/><path d="M5.14-1.813c.438 0 .958-.097 1.563-.296V-.25c-.617.27-1.375.406-2.281.406-.992 0-1.715-.25-2.172-.75-.45-.5-.672-1.254-.672-2.265V-7.25H.391v-1.047l1.359-.828.719-1.922h1.594v1.938h2.546v1.859H4.063v4.39c0 .356.097.622.296.797.196.168.457.25.782.25Zm0 0" id="l"/></defs><use x="4.003" y="20.684" xmlns:xlink="http://www.w3.org/1999/xlink" xlink:href="#a" xlink:type="simple" xlink:actuate="onLoad" xlink:show="embed" fill="#FFF"/><use x="16.166" y="20.684" xmlns:xlink="http://www.w3.org/1999/xlink" xlink:href="#b" xlink:type="simple" xlink:actuate="onLoad" xlink:show="embed" fill="#FFF"/><use x="23.824" y="20.684" xmlns:xlink="http://www.w3.org/1999/xlink" xlink:href="#c" xlink:type="simple" xlink:actuate="onLoad" xlink:show="embed" fill="#FFF"/><use x="33.763" y="20.684" xmlns:xlink="http://www.w3.org/1999/xlink" xlink:href="#d" xlink:type="simple" xlink:actuate="onLoad" xlink:show="embed" fill="#FFF"/><use x="43.336" y="20.684" xmlns:xlink="http://www.w3.org/1999/xlink" xlink:href="#e" xlink:type="simple" xlink:actuate="onLoad" xlink:show="embed" fill="#FFF"/><use x="51.711" y="20.684" xmlns:xlink="http://www.w3.org/1999/xlink" xlink:href="#f" xlink:type="simple" xlink:actuate="onLoad" xlink:show="embed" fill="#FFF"/><use x="62.758" y="20.684" xmlns:xlink="http://www.w3.org/1999/xlink" xlink:href="#g" xlink:type="simple" xlink:actuate="onLoad" xlink:show="embed" fill="#FFF"/><use x="73.169" y="20.684" xmlns:xlink="http://www.w3.org/1999/xlink" xlink:href="#b" xlink:type="simple" xlink:actuate="onLoad" xlink:show="embed" fill="#FFF"/><use x="80.828" y="20.684" xmlns:xlink="http://www.w3.org/1999/xlink" xlink:href="#c" xlink:type="simple" xlink:actuate="onLoad" xlink:show="embed" fill="#FFF"/><use x="90.767" y="20.684" xmlns:xlink="http://www.w3.org/1999/xlink" xlink:href="#h" xlink:type="simple" xlink:actuate="onLoad" xlink:show="embed" fill="#FFF"/><use x="95.183" y="20.684" xmlns:xlink="http://www.w3.org/1999/xlink" xlink:href="#h" xlink:type="simple" xlink:actuate="onLoad" xlink:show="embed" fill="#FFF"/><use x="106.776" y="20.684" xmlns:xlink="http://www.w3.org/1999/xlink" xlink:href="#e" xlink:type="simple" xlink:actuate="onLoad" xlink:show="embed" fill="#FFF"/><use x="115.151" y="20.684" xmlns:xlink="http://www.w3.org/1999/xlink" xlink:href="#e" xlink:type="simple" xlink:actuate="onLoad" xlink:show="embed" fill="#FFF"/><use x="123.526" y="20.684" xmlns:xlink="http://www.w3.org/1999/xlink" xlink:href="#g" xlink:type="simple" xlink:actuate="onLoad" xlink:show="embed" fill="#FFF"/><use x="133.938" y="20.684" xmlns:xlink="http://www.w3.org/1999/xlink" xlink:href="#i" xlink:type="simple" xlink:actuate="onLoad" xlink:show="embed" fill="#FFF"/><use x="142.598" y="20.684" xmlns:xlink="http://www.w3.org/1999/xlink" xlink:href="#j" xlink:type="simple" xlink:actuate="onLoad" xlink:show="embed" fill="#FFF"/><use x="147.772" y="20.684" xmlns:xlink="http://www.w3.org/1999/xlink" xlink:href="#k" xlink:type="simple" xlink:actuate="onLoad" xlink:show="embed" fill="#FFF"/><use x="157.931" y="20.684" xmlns:xlink="http://www.w3.org/1999/xlink" xlink:href="#l" xlink:type="simple" xlink:actuate="onLoad" xlink:show="embed" fill="#FFF"/><use x="165.256" y="20.684" xmlns:xlink="http://www.w3.org/1999/xlink" xlink:href="#c" xlink:type="simple" xlink:actuate="onLoad" xlink:show="embed" fill="#FFF"/><use x="175.195" y="20.684" xmlns:xlink="http://www.w3.org/1999/xlink" xlink:href="#e" xlink:type="simple" xlink:actuate="onLoad" xlink:show="embed" fill="#FFF"/></svg>
